X:175
T:Saltarello 3
L:1/8
M:6/8
Z:Andy Hornby
%%TUNEURL: http://www.leeds.ac.uk/music/Info/RRTuneBk/gettune/00000da6.html
%%ID:00000da6
K:C
cBA GAB|cdB c2 G|ABc ABG|cBc d2e|
cgf e2d|cgf e2d|cBc A2e|Aee A3:|
|:edc B2A|c2d e2d|cBc A2B|GAB c2G|ABc ABG|
cBc d2e|cgf e2d|cgf e2d|cBc A2e|Aee A3:|
|:ede g2c|ggc g3|ede g2e|fed e2d|
cBc A2B|GAB c2G|ABc ABG|cBc d2e|
cgf e2d|cgf e2d|cBc A2e|Aee A3:|
